!! 00000] TT[WS
!!!OTL: Jian lantan
!!!ARE: Asia, China, Shanxi Pingjie
!! Ethnic Group: Han
!! WII, 172 (2)
!!!SCT: J0659
!!!YEM: Copyright 1995, estate of Helmut Schaffrath.
**kern
*ICvox
*Ivox
*M2/4
*k[b-]
*F:
{4dd
8dd
8ff
=1
4dd
4cc
=2
8.ff
16ff
8ff
8cc
=3
8dd
8cc
4a}
=4
{4a
8a
8cc
=5
8dd
8ff
8cc
8a
=6
8.a
16g
8f
8a
=7
2g}
=8
{4a
8a
8cc
=9
4ff
8dd
8dd
=10
4a
8cc
8dd
=11
4f
4d}
=12
{8dd
8dd
8a
8cc
=13
8dd
8cc
8a
8cc
=14
8g
4d
8c
=15
2d}
==
!!!AGN: Xiaodiao, Qingge
!!!ONB: ESAC (Essen Associative Code) Database: CHINA
!!!AMT: simple duple
!!!AIN: vox
!!!EED: Helmut Schaffrath
!!!EEV: 1.0
*-
